public/icons/icon-mail.svg

<svg width="16" height="16" viewBox="0 0 16 16" fill="none" xmlns="http://www.w3.org/2000/svg">
<path fill-rule="evenodd" clip-rule="evenodd" d="M2.00651 3.89323C2.00651 3.52504 2.30499 3.22656 2.67318 3.22656L13.3333 3.22656C13.7015 3.22656 14 3.52504 14 3.89323L14 11.4427C14 12.1791 13.403 12.776 12.6667 12.776L3.33333 12.776C2.59695 12.776 2 12.1791 2 11.4427L2 4.10938C2 4.07763 2.00222 4.0464 2.00651 4.01584V3.89323ZM3.33333 5.37573L3.33333 11.4427L12.6667 11.4427L12.6667 5.37596L9.41433 8.6283C8.63328 9.40935 7.36695 9.40935 6.5859 8.6283L3.33333 5.37573ZM4.38155 4.53833L11.6187 4.53833L8.47152 7.68549C8.21117 7.94584 7.78906 7.94584 7.52871 7.68549L4.38155 4.53833Z" fill="#E8F5FF"/>
</svg>

<svg viewBox="0 0 16 16" fill="none" xmlns="http://www.w3.org/2000/svg"><path fill-rule="evenodd" clip-rule="evenodd" d="M2.007 3.893c0-.368.298-.666.666-.666h10.66c.368 0 .667.298.667.666v7.55c0 .736-.597 1.333-1.333 1.333H3.333A1.333 1.333 0 0 1 2 11.443V4.109c0-.031.002-.063.007-.093v-.123zm1.326 1.483v6.067h9.334V5.376L9.414 8.628a2 2 0 0 1-2.828 0L3.333 5.376zm1.049-.838h7.237L8.472 7.685a.667.667 0 0 1-.943 0L4.382 4.538z" fill="#E8F5FF"/></svg>
